material/.icons/material/account-network-outline.svg

<svg xmlns="http://www.w3.org/2000/svg" viewBox="0 0 24 24"><path d="M12 10a3.5 3.5 0 003.5-3.5A3.5 3.5 0 0012 3a3.5 3.5 0 00-3.5 3.5A3.5 3.5 0 0012 10m0-5a1.5 1.5 0 011.5 1.5A1.5 1.5 0 0112 8a1.5 1.5 0 01-1.5-1.5A1.5 1.5 0 0112 5m3 15a1 1 0 00-1-1h-1v-2h6v-1.5c0-1.93-3.13-3.5-7-3.5s-7 1.57-7 3.5V17h6v2h-1a1 1 0 00-1 1H2v2h7a1 1 0 001 1h4a1 1 0 001-1h7v-2h-7m-7.39-5c.78-.47 2.28-1 4.39-1s3.61.53 4.39 1H7.61z"/></svg>

<?xml version="1.0" encoding="UTF-8"?><!DOCTYPE svg PUBLIC "-//W3C//DTD SVG 1.1//EN" "http://www.w3.org/Graphics/SVG/1.1/DTD/svg11.dtd"><svg xmlns="http://www.w3.org/2000/svg" xmlns:xlink="http://www.w3.org/1999/xlink" version="1.1" id="mdi-account-network-outline" width="24" height="24" viewBox="0 0 24 24"><path d="M12,10A3.5,3.5 0 0,0 15.5,6.5A3.5,3.5 0 0,0 12,3A3.5,3.5 0 0,0 8.5,6.5A3.5,3.5 0 0,0 12,10M12,5A1.5,1.5 0 0,1 13.5,6.5A1.5,1.5 0 0,1 12,8A1.5,1.5 0 0,1 10.5,6.5A1.5,1.5 0 0,1 12,5M15,20A1,1 0 0,0 14,19H13V17H19V15.5C19,13.57 15.87,12 12,12C8.13,12 5,13.57 5,15.5V17H11V19H10A1,1 0 0,0 9,20H2V22H9A1,1 0 0,0 10,23H14A1,1 0 0,0 15,22H22V20H15M7.61,15C8.39,14.53 9.89,14 12,14C14.11,14 15.61,14.53 16.39,15H7.61Z" /></svg>
